X:1
T:Luring II
R:Schottis
S:Luringen och Spel Bengten
O:Virestad, Smland
D:Sgskra - nglarnas sprk
M:4/4
L:1/8
K:D
|:dd/2d/2 cA cc/2c/2 BA|F2 AA A/2c/2e/2c/2 d/2c/2B/2A/2|dd/2d/2 cA cc/2c/2 BA|F2 AA A/2c/2e/2c/2 d2:|
|:A=f/2e/2 =fg aa/2a/2 ge|c2 ec ed/2c/2 d/2c/2B/2A/2|A=f/2e/2 =fg aa/2a/2 ge|c2 ec ed/2c/2 d2:|
